X:15
T:score11
L:1/8
Q:1/4=96
M:1/4
I:linebreak $
K:Amin
 (E2 |[M:4/4] A2 Bc d2 ef) | (fe)ec A2 (Ac) | (cB)B^G G<E- E2- | E2 z2 z2 (E2 |$ AABc d2 ef) | %6
 (fe)(ec) A2 (Ac) | cBBG G<E- E2- |[M:3/4] E2 z2 z2 z2 |] %9
